X:1
T:Lord Rendal
M:4/4
L:1/4
K:G
 D| G G A G| F D3| d2 A B| G3| D| G G A G| F D3| d- d A B| G2G/2-A/2|\
 B| c B A B| c B A B| d2 G A| G- F E| D| G2 G G| G- A B c| d2 A B|\
 G3||
